!!!OTL: 779. O bleib bei mir!
!!!ARE: Europa, Mitteleuropa, Deutschland, Schwaben
!!!SCT: E0779
!!!TXL: @@DE
!!!YEM: Copyright 1995, estate of Helmut Schaffrath.
**kern	**text
*ICvox	*
*M3/4	*
*k[]	*
*C:	*
!LO:TX:a:t=Mäßig bewegt.	!
!LO:TX:a:t=Aus Schwaben und dem Elſaß.	!
{8.g	Wie
16a	die
=1	=1
4g	Blüm-
4e	-lein
8.cc	drau-
16dd	-ßen
=2	=2
4cc	ʒit-
4b}	-tern
{8g	in
8g	der
=3	=3
4.b	A-
8a	-bend-
8g	-lüf-
8f	-te
=4	=4
2e}	wehn!
{8.g	Und
16a	dn
=5	=5
4g	willſt
4e	mir's
8.cc	Herʒ
16dd	ver-
=6	=6
4cc	-bit-
4b}	-tern,
{8g	und
8g	du
=7	=7
4.b	willſt
8a	von
8g	mir
8f	nun
=8	=8
2e}	gehn!
{8r	.
8g	O
=9	=9
8g	bleib
8ee	bei
4.cc	mir
8b/	und
=10	=10
8a	geh
8ff	nicht
4.dd}	fort,
{8cc	mein
=11	=11
8.b	Herʒ
16a	iſt
8g	ja
8g	dein
8.a	Hei-
16g	-maths-
=12	=12
(4g	-ort!
4e)	.
8r}	.
{8g	O
=13	=13
8g	bleib
8ee	bei
4.cc	mir
8b	und
=14	=14
8a	geh
8ff	nicht
4.dd}	fort,
{8cc	mein
=15	=15
8.b	Herʒ
16a	iſt
8g	ja
8b	dein
8.ee	Hei-
16dd	-maths-
=16	=16
2cc}	-ort!
==	==
!!!AGN: Abschieds - Lied, Liebe
!!!ONB: ESAC (Essen Associative Code) Database: ERK2
!!!AMT: simple triple
!!!AIN: vox
!!!EED: Helmut Schaffrath
!!!EEV: 1.0
!!!GTL: Abschieds- und Wanderlieder
!!!URL-scan: https://rosdok.uni-rostock.de/mcrviewer/recordIdentifier/rosdok_ppn745177662/iview2/phys_0584.iview2?x=193.8995864193107&y=439.63688545674086&scale=0.7029437510502773&rotation=0&layout=singlePageLayout
!!!ENC: Anna Maria Matuszewska
!!!EEV: 2024/12/17
*-	*-
